X: 30
T: SALAMANCA REEL
R: reel
Z: 2006 John Chambers <jc:trillian.mit.edu>
B: "Rinnci na h-\'Eireann" Elizabeth Burchenal, ed. G.Schirmer (1925) p.76
M: 2/4
L: 1/16
Q: 1/4=112
%%slurgraces 1
K: D
d>B \
| "D"AD ((3FED) AD ((3FED) | Adcd fedc | "Em"BE ((3GFE) BE ((3GFE) | "Em"Beed "A"ceeg |
 "Bm"fB ((3dcB) bB ((3dcB) | "A7"fedc "Bm"dbag | "D"fg"A7"ec "D"dA"G"B(G | "A"F)GEF "D"D2 :|
|: fg \
| "D"afdf "G"bgeg | "D"fg"A7"ec "D"dcBA | "G"Bdce "D"df"G"eg | "D"ea"E"^gb | "A"a2((3ABc) |
| "D"defg af"G"bg | "A"fedc "D"dbag | "D"fe"A7"dc "D"dA"G"B(G | "A"F)GEF "D"D2 :|

%%sep 2 1 500

